assets/icons/logo.svg

<svg width="156" height="26" viewBox="0 0 156 26" fill="none" xmlns="http://www.w3.org/2000/svg">
<g clip-path="url(#clip0_75_853)">
<path d="M14.658 15.7456C16.0209 15.0564 17.1637 13.9995 17.9572 12.6946C18.7506 11.3896 19.163 9.88866 19.1477 8.36151C19.1477 3.40208 15.3446 0 10.1701 0H0V25.3358H5.23992C5.57571 25.3358 5.89787 25.203 6.13612 24.9663C6.37436 24.7297 6.50934 24.4085 6.51162 24.0727V18.1014C6.51157 18.0665 6.52045 18.0321 6.53743 18.0016L8.57489 14.3104C8.5834 14.2934 8.59829 14.2804 8.61634 14.2742C8.63439 14.2681 8.65413 14.2694 8.67126 14.2777C8.6853 14.2849 8.69673 14.2964 8.70395 14.3104L10.7397 17.9861C10.7569 18.0172 10.7658 18.0521 10.7655 18.0876V24.0727C10.7655 24.2404 10.7987 24.4065 10.8631 24.5613C10.9276 24.7162 11.022 24.8567 11.141 24.9749C11.26 25.0932 11.4012 25.1866 11.5565 25.25C11.7118 25.3134 11.8781 25.3455 12.0458 25.3444H20.0597L14.658 15.7456ZM10.7517 8.24105L12.655 10.134C12.6602 10.1399 12.663 10.1476 12.663 10.1555C12.663 10.1634 12.6602 10.171 12.655 10.177L10.6037 12.2265C10.5978 12.2317 10.5901 12.2346 10.5822 12.2346C10.5743 12.2346 10.5667 12.2317 10.5607 12.2265L8.66093 10.325C8.65459 10.3192 8.6463 10.3159 8.6377 10.3159C8.6291 10.3159 8.62081 10.3192 8.61447 10.325L6.71123 12.2265C6.70575 12.232 6.69832 12.235 6.69058 12.235C6.68284 12.235 6.67541 12.232 6.66993 12.2265L4.62215 10.1821C4.61634 10.1758 4.61312 10.1675 4.61312 10.1589C4.61312 10.1503 4.61634 10.142 4.62215 10.1357L6.52538 8.24277C6.53059 8.23681 6.53345 8.22917 6.53345 8.22126C6.53345 8.21335 6.53059 8.20571 6.52538 8.19975L4.62215 6.28275C4.61646 6.27668 4.61329 6.26869 4.61329 6.26038C4.61329 6.25206 4.61646 6.24407 4.62215 6.238L6.66649 4.19366C6.67255 4.18797 6.68055 4.18481 6.68886 4.18481C6.69717 4.18481 6.70517 4.18797 6.71123 4.19366L8.61447 6.0969C8.62043 6.1021 8.62807 6.10497 8.63598 6.10497C8.64389 6.10497 8.65153 6.1021 8.65749 6.0969L10.5642 4.19366C10.5705 4.18786 10.5788 4.18464 10.5874 4.18464C10.596 4.18464 10.6043 4.18786 10.6106 4.19366L12.655 6.238C12.6604 6.24349 12.6635 6.25091 12.6635 6.25865C12.6635 6.26639 12.6604 6.27382 12.655 6.2793L10.7517 8.18598C10.7454 8.19242 10.7419 8.20106 10.7419 8.21007C10.7419 8.21908 10.7454 8.22773 10.7517 8.23417V8.24105Z" fill="url(#paint0_linear_75_853)"/>
<path d="M37.1406 16.4477C37.1406 12.1112 34.8158 8.2617 30.3434 7.30836C29.6111 7.15514 28.8647 7.07958 28.1166 7.08293C22.6341 7.08293 18.8878 10.9995 18.8878 16.618C18.8878 21.2127 21.7083 24.73 25.7453 25.6885C26.4885 25.864 27.2497 25.9518 28.0134 25.9501C32.8627 25.9501 36.1254 23.553 36.9617 19.7981L36.972 19.7517H32.2053C31.6891 20.8754 30.2969 21.8975 28.2199 21.8975C27.862 21.8976 27.5051 21.8613 27.1547 21.7891C25.2618 21.3899 24.04 19.9186 23.8954 17.9809H37.1458L37.1406 16.4477ZM28.1166 11.1028C28.4882 11.101 28.8587 11.1408 29.2214 11.2215C30.9422 11.6018 32.0676 12.8821 32.2363 14.4739H23.9952C24.2344 12.7032 25.8692 11.1028 28.1166 11.1028Z" fill="url(#paint1_linear_75_853)"/>
<path d="M50.0899 11.6827V7.55272H45.3869V2.69138H40.3741V6.00397C40.3741 6.95903 39.8579 7.60606 38.908 7.60606H37.2043V11.6827H40.0953V19.3163C40.0953 23.2742 42.446 25.5526 46.3643 25.5526H50.0108V21.1954H47.7048C46.1372 21.1954 45.3869 20.3781 45.3869 19.0496V11.6827H50.0899Z" fill="white"/>
<path d="M59.8694 7.12251C54.0427 7.12251 50.157 11.2525 50.157 16.5613C50.157 21.87 54.0771 26 59.835 26C65.629 26 69.5473 21.87 69.5473 16.5613C69.5473 11.2525 65.629 7.12251 59.8694 7.12251ZM59.835 21.2333C57.3484 21.2333 55.5071 19.3249 55.5071 16.5647C55.5071 13.8389 57.3484 11.8961 59.835 11.8961C62.3577 11.8961 64.1973 13.8389 64.1973 16.5647C64.1973 19.2905 62.3577 21.2299 59.835 21.2299V21.2333Z" fill="white"/>
<path d="M82.0182 7.57165V17.6591C82.0182 19.5675 80.7912 21.1008 78.9516 21.1008C77.1448 21.1008 76.0538 19.805 76.0538 17.931V7.57165H70.7743V19.5675C70.7743 23.3155 73.2282 26.0069 77.2153 26.0069C79.6348 26.0069 81.3453 24.7817 82.0199 23.5977H82.2918V25.5732H87.3011V7.57165H82.0182Z" fill="white"/>
<path d="M97.8653 21.2299C95.3098 21.2299 93.6406 19.1855 93.6406 16.5613C93.6406 13.98 95.2427 11.8926 97.8326 11.8926C99.7066 11.8926 101.069 13.0181 101.546 14.5513H106.896C106.38 10.1546 102.807 7.12251 97.7982 7.12251C92.0041 7.12251 88.2906 11.2525 88.2906 16.5613C88.2906 21.87 92.0385 26 97.8326 26C102.773 26 106.284 23.0367 106.862 18.7725H101.477C101.035 20.2077 99.636 21.2299 97.8653 21.2299Z" fill="white"/>
<path d="M118.517 7.12251C116.097 7.12251 114.495 8.31504 113.779 9.542H113.509V0H108.261V25.5577H113.544V15.4049C113.544 13.5309 114.838 12.0303 116.677 12.0303C118.484 12.0303 119.642 13.3605 119.642 15.2001V25.5595H124.932V13.5653C124.932 9.80872 122.504 7.12251 118.517 7.12251Z" fill="white"/>
<path d="M140.979 1.7019H134.096L125.984 25.5577H131.504L132.901 21.3383H142.034L143.466 25.5629H149.196L140.979 1.7019ZM134.367 16.52L137.332 7.62671H137.639L140.564 16.52H134.367Z" fill="white"/>
<path d="M150.043 1.7019V25.5577H155.427V1.7019H150.043Z" fill="white"/>
</g>
<defs>
<linearGradient id="paint0_linear_75_853" x1="0" y1="0" x2="24.3659" y2="34.8782" gradientUnits="userSpaceOnUse">
<stop stop-color="#EF7F3E"/>
<stop offset="1" stop-color="#EC367D"/>
</linearGradient>
<linearGradient id="paint1_linear_75_853" x1="0" y1="0" x2="24.3659" y2="34.8782" gradientUnits="userSpaceOnUse">
<stop stop-color="#EF7F3E"/>
<stop offset="1" stop-color="#EC367D"/>
</linearGradient>
<clipPath id="clip0_75_853">
<rect width="155.427" height="26" fill="white"/>
</clipPath>
</defs>
</svg>

<svg width="156" height="26" fill="none" xmlns="http://www.w3.org/2000/svg"><g clip-path="url(#a)"><path d="M14.658 15.746a8.184 8.184 0 0 0 4.49-7.384C19.148 3.402 15.345 0 10.17 0H0v25.336h5.24a1.272 1.272 0 0 0 1.272-1.263V18.1c0-.034.008-.069.025-.1l2.038-3.69a.073.073 0 0 1 .096-.033.076.076 0 0 1 .033.032l2.036 3.676a.206.206 0 0 1 .025.102v5.985a1.272 1.272 0 0 0 1.28 1.271h8.015l-5.402-9.598ZM10.752 8.24l1.903 1.893a.033.033 0 0 1 0 .043l-2.051 2.05a.033.033 0 0 1-.043 0l-1.9-1.902a.034.034 0 0 0-.047 0l-1.903 1.902a.03.03 0 0 1-.02.008.03.03 0 0 1-.021-.008l-2.048-2.045a.034.034 0 0 1 0-.046l1.903-1.893a.033.033 0 0 0 0-.043L4.622 6.283a.033.033 0 0 1 0-.045l2.044-2.044a.033.033 0 0 1 .045 0l1.903 1.903a.033.033 0 0 0 .043 0l1.907-1.903a.034.034 0 0 1 .047 0l2.044 2.044a.03.03 0 0 1 0 .041l-1.903 1.907a.034.034 0 0 0 0 .048v.007Z" fill="url(#b)"/><path d="M37.14 16.448c0-4.337-2.324-8.186-6.797-9.14a10.64 10.64 0 0 0-2.226-.225c-5.483 0-9.23 3.916-9.23 9.535 0 4.595 2.821 8.112 6.858 9.07a9.774 9.774 0 0 0 2.268.262c4.85 0 8.112-2.397 8.949-6.152l.01-.046h-4.767c-.516 1.123-1.908 2.146-3.985 2.146a5.27 5.27 0 0 1-1.065-.109c-1.893-.4-3.115-1.87-3.26-3.808h13.25l-.004-1.533Zm-9.023-5.345c.371-.002.742.038 1.104.119 1.721.38 2.847 1.66 3.015 3.252h-8.24c.238-1.77 1.873-3.371 4.12-3.371Z" fill="url(#c)"/><path d="M50.09 11.683v-4.13h-4.703V2.69h-5.013v3.313c0 .955-.516 1.602-1.466 1.602h-1.704v4.077h2.891v7.633c0 3.958 2.351 6.237 6.27 6.237h3.646v-4.358h-2.306c-1.568 0-2.318-.817-2.318-2.145v-7.367h4.703ZM59.87 7.123c-5.827 0-9.713 4.13-9.713 9.438 0 5.309 3.92 9.439 9.678 9.439 5.794 0 9.712-4.13 9.712-9.439S65.63 7.123 59.87 7.123Zm-.035 14.11c-2.487 0-4.328-1.908-4.328-4.668 0-2.726 1.841-4.669 4.328-4.669 2.523 0 4.362 1.943 4.362 4.669 0 2.726-1.84 4.665-4.362 4.665v.003ZM82.018 7.572v10.087c0 1.909-1.227 3.442-3.066 3.442-1.807 0-2.898-1.296-2.898-3.17V7.571h-5.28v11.996c0 3.748 2.454 6.44 6.441 6.44 2.42 0 4.13-1.225 4.805-2.41h.272v1.976h5.01V7.572h-5.284ZM97.865 21.23c-2.555 0-4.224-2.044-4.224-4.669 0-2.581 1.602-4.668 4.192-4.668 1.874 0 3.236 1.125 3.713 2.658h5.35c-.516-4.396-4.089-7.428-9.098-7.428-5.794 0-9.507 4.13-9.507 9.438 0 5.309 3.748 9.439 9.542 9.439 4.94 0 8.451-2.963 9.029-7.227h-5.385c-.442 1.435-1.841 2.457-3.612 2.457ZM118.517 7.123c-2.42 0-4.022 1.192-4.738 2.419h-.27V0h-5.248v25.558h5.283V15.405c0-1.874 1.294-3.375 3.133-3.375 1.807 0 2.965 1.33 2.965 3.17v10.36h5.29V13.565c0-3.756-2.428-6.442-6.415-6.442ZM140.979 1.702h-6.883l-8.112 23.856h5.52l1.397-4.22h9.133l1.432 4.225h5.73l-8.217-23.861Zm-6.612 14.818 2.965-8.893h.307l2.925 8.893h-6.197ZM150.043 1.702v23.856h5.384V1.702h-5.384Z" fill="#fff"/></g><defs><linearGradient id="b" x1="0" y1="0" x2="24.366" y2="34.878" gradientUnits="userSpaceOnUse"><stop stop-color="#EF7F3E"/><stop offset="1" stop-color="#EC367D"/></linearGradient><linearGradient id="c" x1="0" y1="0" x2="24.366" y2="34.878" gradientUnits="userSpaceOnUse"><stop stop-color="#EF7F3E"/><stop offset="1" stop-color="#EC367D"/></linearGradient><clipPath id="a"><path fill="#fff" d="M0 0h155.427v26H0z"/></clipPath></defs></svg>
